client/src/assets/icons/tel.svg

<svg width="150" height="150" viewBox="0 0 150 150" fill="none" xmlns="http://www.w3.org/2000/svg">
<path d="M75 140C110.899 140 140 110.899 140 75C140 39.1015 110.899 10 75 10C39.1015 10 10 39.1015 10 75C10 110.899 39.1015 140 75 140Z" fill="#F2EDE9"/>
<g filter="url(#filter0_d_151_2)">
<path d="M50.88 33.86C52.5251 34.1349 54.0735 34.8231 55.38 35.86C55.5723 36.0058 55.756 36.1627 55.93 36.33C59.62 40 63.33 43.65 67 47.37C68.3018 48.5917 69.1407 50.2264 69.374 51.9964C69.6073 53.7664 69.2208 55.5626 68.28 57.08C67.4536 58.4778 66.1614 59.5399 64.63 60.08C63.5237 60.4177 62.5038 60.9914 61.6406 61.7613C60.7774 62.5313 60.0914 63.4793 59.63 64.54C58.991 65.9963 58.8779 67.6295 59.31 69.16C60.4942 73.1803 62.5961 76.8706 65.45 79.94C68.6754 83.7902 72.6446 86.9499 77.12 89.23C78.9507 90.3139 81.0675 90.816 83.19 90.67C84.5615 90.5647 85.8762 90.0781 86.9858 89.2653C88.0955 88.4525 88.9559 87.3458 89.47 86.07C90.0666 84.2227 91.2769 82.6349 92.9 81.57C94.2857 80.7186 95.9083 80.3348 97.5287 80.4752C99.149 80.6156 100.681 81.2729 101.9 82.35C104.16 84.41 106.27 86.61 108.43 88.77C110.43 90.77 112.43 92.66 114.26 94.77C115.368 96.1104 116.002 97.7793 116.063 99.5172C116.125 101.255 115.61 102.965 114.6 104.38C114.181 104.969 113.716 105.524 113.21 106.04C111.05 108.23 108.81 110.35 106.7 112.59C105.635 113.707 104.355 114.598 102.937 115.21C101.52 115.822 99.9938 116.141 98.45 116.15C95.073 116.204 91.7155 115.627 88.55 114.45C82.3151 112.22 76.4448 109.08 71.13 105.13C62.2205 98.7573 54.2872 91.1204 47.58 82.46C42.4782 76.207 38.4686 69.1377 35.72 61.55C34.4865 58.2288 33.9026 54.7015 34 51.16C34.0189 49.6442 34.3409 48.1475 34.9471 46.7581C35.5534 45.3687 36.4316 44.1147 37.53 43.07C39.53 41.21 41.4 39.29 43.27 37.34C44.7524 35.521 46.8327 34.2877 49.14 33.86H50.88Z" fill="white"/>
</g>
<defs>
<filter id="filter0_d_151_2" x="13.9895" y="13.86" width="122.079" height="122.293" filterUnits="userSpaceOnUse" color-interpolation-filters="sRGB">
<feFlood flood-opacity="0" result="BackgroundImageFix"/>
<feColorMatrix in="SourceAlpha" type="matrix" values="0 0 0 0 0 0 0 0 0 0 0 0 0 0 0 0 0 0 127 0" result="hardAlpha"/>
<feOffset/>
<feGaussianBlur stdDeviation="10"/>
<feComposite in2="hardAlpha" operator="out"/>
<feColorMatrix type="matrix" values="0 0 0 0 0 0 0 0 0 0 0 0 0 0 0 0 0 0 0.15 0"/>
<feBlend mode="normal" in2="BackgroundImageFix" result="effect1_dropShadow_151_2"/>
<feBlend mode="normal" in="SourceGraphic" in2="effect1_dropShadow_151_2" result="shape"/>
</filter>
</defs>
</svg>

<svg xmlns="http://www.w3.org/2000/svg" viewBox="0 0 150 150"><circle cx="75" cy="75" r="65" style="fill:#ccbebc"/><path d="M50.88,33.86a9.85,9.85,0,0,1,4.5,2,6.19,6.19,0,0,1,.55.47C59.62,40,63.33,43.65,67,47.37a7.73,7.73,0,0,1,1.28,9.71,6.91,6.91,0,0,1-3.65,3,8,8,0,0,0-5,4.46,6.86,6.86,0,0,0-.32,4.62,27.06,27.06,0,0,0,6.14,10.78,37.33,37.33,0,0,0,11.67,9.29,10.5,10.5,0,0,0,6.07,1.44,7.38,7.38,0,0,0,6.28-4.6,8.51,8.51,0,0,1,3.43-4.5,7.59,7.59,0,0,1,9,.78c2.26,2.06,4.37,4.26,6.53,6.42,2,2,4,3.89,5.83,6a7.89,7.89,0,0,1,.34,9.61,13.89,13.89,0,0,1-1.39,1.66c-2.16,2.19-4.4,4.31-6.51,6.55a11.49,11.49,0,0,1-8.25,3.56,27.15,27.15,0,0,1-9.9-1.7,67.07,67.07,0,0,1-17.42-9.32A112.76,112.76,0,0,1,47.58,82.46,71.71,71.71,0,0,1,35.72,61.55,27.66,27.66,0,0,1,34,51.16a11.36,11.36,0,0,1,3.53-8.09c2-1.86,3.87-3.78,5.74-5.73a9.9,9.9,0,0,1,5.87-3.48Z" style="fill:#fff"/></svg>
